src/components/SVG/twitter.svg

<svg width="18" height="15" viewBox="0 0 18 15" xmlns="http://www.w3.org/2000/svg" class="social-icon">
<path d="M18 1.73706C17.3381 2.0226 16.6177 2.22811 15.8757 2.30815C16.6461 1.85049 17.223 1.12747 17.4981 0.274736C16.7753 0.704756 15.9834 1.00629 15.1576 1.16597C14.8124 0.796989 14.395 0.503039 13.9312 0.302441C13.4675 0.101842 12.9675 -0.00110709 12.4622 8.97816e-06C10.418 8.97816e-06 8.77395 1.65702 8.77395 3.69043C8.77395 3.97597 8.80856 4.26152 8.8648 4.53624C5.80387 4.37617 3.07391 2.91384 1.25898 0.674928C0.928285 1.23977 0.754987 1.88292 0.75712 2.53744C0.75712 3.81806 1.40824 4.94725 2.40115 5.61135C1.81602 5.58831 1.24458 5.42748 0.733325 5.14194V5.18737C0.733325 6.98066 2.00096 8.46678 3.69042 8.80857C3.37321 8.89096 3.04688 8.93312 2.71914 8.93403C2.47903 8.93403 2.25189 8.91024 2.02259 8.87779C2.48984 10.3401 3.8505 11.4022 5.47074 11.4369C4.2031 12.4298 2.61531 13.0138 0.891239 13.0138C0.581901 13.0138 0.296359 13.003 0 12.9684C1.63538 14.0176 3.57577 14.6233 5.66542 14.6233C12.4492 14.6233 16.1613 9.00325 16.1613 4.12523C16.1613 3.96516 16.1613 3.80508 16.1505 3.645C16.8686 3.11935 17.4981 2.46822 18 1.73706Z"/>
</svg>

<svg width="18" height="15" xmlns="http://www.w3.org/2000/svg" class="social-icon"><path d="M18 1.737a7.397 7.397 0 01-2.124.571A3.679 3.679 0 0017.498.275a7.281 7.281 0 01-2.34.891A3.68 3.68 0 0012.462 0a3.688 3.688 0 00-3.688 3.69c0 .286.035.572.09.846A10.483 10.483 0 011.26.675a3.663 3.663 0 00-.502 1.862c0 1.281.651 2.41 1.644 3.074a3.72 3.72 0 01-1.668-.47v.046A3.69 3.69 0 003.69 8.81a3.907 3.907 0 01-.97.125c-.241 0-.468-.024-.697-.056a3.695 3.695 0 003.448 2.559 7.393 7.393 0 01-4.58 1.577c-.31 0-.595-.011-.891-.046a10.445 10.445 0 005.665 1.655c6.784 0 10.496-5.62 10.496-10.498 0-.16 0-.32-.01-.48A7.947 7.947 0 0018 1.737z"/></svg>
